X:1
T:Ballinderry
M:3/4
L:1/4
K:C
 C| E/2 E3/2 E| G2 G| F2 G| E C2| E/2 E3/2 E| G2 G| F2 G| E2 G| G E C|\
 C2 C| F/2 F3/2E/2-F/2| G G2| G/2 E3/2 C| D/2 E3/2 D| C2 D| C3| c3|\
 E3| D3/2- E/2- D| C3| c3| E3| D3/2- E/2- D| C2||
